X: 383
T: Carlton House
R: march, reel
M: 2/4
L: 1/16
Z: 2012 John Chambers <jc:trillian.mit.edu>
B: J. Anderson "Budget of Strathspeys, Reels and Country Dances" (Early 1800s) p.38 #3
F: http://imslp.org/wiki/Anderson%27s_Budget_of_Strathspeys,_Reels_and_Country_Dances_(Various)
N: The 2nd part has final repeat symbol but no initial repeat.  Fixed.
K: D
|: a3f afaf | d2d2d2A2 | B2d2c2e2 | dcde d2A2 | a3f afaf | d2d2d2A2 | B2e2c2e2 | d4 d4 :|
|: a3ba3b | a2a2f2d2 | a3ba3d' | bagf f2e2 | a3ba3b | a2b2c'2d'2 | bagf agfe | d2d2 d4 :|

%%sep 2 1 500
%%sep 1 1 500

